svg/emoji_u25fc.svg

<svg enable-background="new 0 0 128 128" viewBox="0 0 128 128" xmlns="http://www.w3.org/2000/svg"><linearGradient id="a" x1="64" x2="64" y1="13.849" y2="114.63" gradientUnits="userSpaceOnUse"><stop stop-color="#616161" offset="0"/><stop stop-color="#4E4E4E" offset=".3517"/><stop stop-color="#212121" offset="1"/></linearGradient><path d="m102 108h-76c-3.31 0-6-2.69-6-6v-76c0-3.31 2.69-6 6-6h76c3.31 0 6 2.69 6 6v76c0 3.31-2.69 6-6 6z" fill="url(#a)"/><g opacity=".2"><path d="m102 23c1.65 0 3 1.35 3 3v76c0 1.65-1.35 3-3 3h-76c-1.65 0-3-1.35-3-3v-76c0-1.65 1.35-3 3-3h76m0-3h-76c-3.31 0-6 2.69-6 6v76c0 3.31 2.69 6 6 6h76c3.31 0 6-2.69 6-6v-76c0-3.31-2.69-6-6-6z" fill="#eee"/></g></svg>

<svg width="128" height="128" style="enable-background:new 0 0 128 128;" xmlns="http://www.w3.org/2000/svg" xmlns:xlink="http://www.w3.org/1999/xlink">
  <g>
    <linearGradient id="SVGID_1_" gradientUnits="userSpaceOnUse" x1="64" x2="64" y1="13.849" y2="114.6258">
      <stop offset="0" style="stop-color:#616161"/>
      <stop offset="0.3517" style="stop-color:#4E4E4E"/>
      <stop offset="1" style="stop-color:#212121"/>
    </linearGradient>
    <path d="M102,108H26c-3.31,0-6-2.69-6-6V26c0-3.31,2.69-6,6-6h76c3.31,0,6,2.69,6,6v76 C108,105.31,105.31,108,102,108z" style="fill:url(#SVGID_1_);"/>
    <g style="opacity:0.2;">
      <path d="M102,23c1.65,0,3,1.35,3,3v76c0,1.65-1.35,3-3,3H26c-1.65,0-3-1.35-3-3V26c0-1.65,1.35-3,3-3H102 M102,20H26c-3.31,0-6,2.69-6,6v76c0,3.31,2.69,6,6,6h76c3.31,0,6-2.69,6-6V26C108,22.69,105.31,20,102,20L102,20z" style="fill:#EEEEEE;"/>
    </g>
  </g>
</svg>
